src/main/webapp/scripts/pdfjs/v54530/web/images/toolbarButton-viewThumbnail.svg

<svg fill="none" height="16" viewBox="0 0 16 16" width="16" xmlns="http://www.w3.org/2000/svg"><path d="m3.5 2c0-.27579.22421-.5.5-.5h1.25c.27579 0 .5.22421.5.5v3.25c0 .27579-.22421.5-.5.5h-1.25c-.27579 0-.5-.22421-.5-.5zm.5-2c-1.10421 0-2 .895786-2 2v3.25c0 1.10421.89579 2 2 2h1.25c1.10421 0 2-.89579 2-2v-3.25c0-1.104214-.89579-2-2-2zm-.5 10.75c0-.2758.22421-.5.5-.5h1.25c.27579 0 .5.2242.5.5v3.25c0 .2758-.22421.5-.5.5h-1.25c-.27579 0-.5-.2242-.5-.5zm.5-2c-1.10421 0-2 .89579-2 2v3.25c0 1.1042.89579 2 2 2h1.25c1.10421 0 2-.8958 2-2v-3.25c0-1.10421-.89579-2-2-2zm6.75-7.25c-.2758 0-.5.22421-.5.5v3.25c0 .27579.2242.5.5.5h1.25c.2758 0 .5-.22421.5-.5v-3.25c0-.27579-.2242-.5-.5-.5zm-2 .5c0-1.104214.89579-2 2-2h1.25c1.1042 0 2 .895786 2 2v3.25c0 1.10421-.8958 2-2 2h-1.25c-1.10421 0-2-.89579-2-2zm1.5 8.75c0-.2758.2242-.5.5-.5h1.25c.2758 0 .5.2242.5.5v3.25c0 .2758-.2242.5-.5.5h-1.25c-.2758 0-.5-.2242-.5-.5zm.5-2c-1.10421 0-2 .89579-2 2v3.25c0 1.1042.89579 2 2 2h1.25c1.1042 0 2-.8958 2-2v-3.25c0-1.10421-.8958-2-2-2z" fill="#000"/></svg>

<svg width="16" height="16" viewBox="0 0 16 16" fill="none" xmlns="http://www.w3.org/2000/svg">
<path d="M3.5 2C3.5 1.72421 3.72421 1.5 4 1.5H5.25C5.52579 1.5 5.75 1.72421 5.75 2V5.25C5.75 5.52579 5.52579 5.75 5.25 5.75H4C3.72421 5.75 3.5 5.52579 3.5 5.25V2ZM4 0C2.89579 0 2 0.895786 2 2V5.25C2 6.35421 2.89579 7.25 4 7.25H5.25C6.35421 7.25 7.25 6.35421 7.25 5.25V2C7.25 0.895786 6.35421 0 5.25 0H4ZM3.5 10.75C3.5 10.4742 3.72421 10.25 4 10.25H5.25C5.52579 10.25 5.75 10.4742 5.75 10.75V14C5.75 14.2758 5.52579 14.5 5.25 14.5H4C3.72421 14.5 3.5 14.2758 3.5 14V10.75ZM4 8.75C2.89579 8.75 2 9.64579 2 10.75V14C2 15.1042 2.89579 16 4 16H5.25C6.35421 16 7.25 15.1042 7.25 14V10.75C7.25 9.64579 6.35421 8.75 5.25 8.75H4ZM10.75 1.5C10.4742 1.5 10.25 1.72421 10.25 2V5.25C10.25 5.52579 10.4742 5.75 10.75 5.75H12C12.2758 5.75 12.5 5.52579 12.5 5.25V2C12.5 1.72421 12.2758 1.5 12 1.5H10.75ZM8.75 2C8.75 0.895786 9.64579 0 10.75 0H12C13.1042 0 14 0.895786 14 2V5.25C14 6.35421 13.1042 7.25 12 7.25H10.75C9.64579 7.25 8.75 6.35421 8.75 5.25V2ZM10.25 10.75C10.25 10.4742 10.4742 10.25 10.75 10.25H12C12.2758 10.25 12.5 10.4742 12.5 10.75V14C12.5 14.2758 12.2758 14.5 12 14.5H10.75C10.4742 14.5 10.25 14.2758 10.25 14V10.75ZM10.75 8.75C9.64579 8.75 8.75 9.64579 8.75 10.75V14C8.75 15.1042 9.64579 16 10.75 16H12C13.1042 16 14 15.1042 14 14V10.75C14 9.64579 13.1042 8.75 12 8.75H10.75Z" fill="black"/>
</svg>
